src/lib/packages/icons/src/assets/filled/dollar-circle.svg

<svg width="24" height="24" viewBox="0 0 24 24" fill="none" xmlns="http://www.w3.org/2000/svg">
<path d="M12 2C6.477 2 2 6.477 2 12C2 17.523 6.477 22 12 22C17.523 22 22 17.523 22 12C22 6.477 17.523 2 12 2ZM14.203 15.869C13.798 16.274 13.283 16.521 12.728 16.601V17C12.728 17.414 12.392 17.75 11.978 17.75C11.564 17.75 11.228 17.414 11.228 17V16.599C10.085 16.413 9.17801 15.492 9.04401 14.306C8.99801 13.894 9.29399 13.5231 9.70599 13.4771C10.112 13.4261 10.489 13.727 10.535 14.139C10.599 14.709 11.079 15.139 11.651 15.139H12.351C12.649 15.139 12.93 15.022 13.143 14.809C13.356 14.596 13.473 14.315 13.473 14.017C13.473 13.502 13.123 13.055 12.622 12.928L11.014 12.5291C10.444 12.3841 9.93599 12.053 9.57999 11.594C9.22599 11.146 9.02802 10.572 9.02802 9.98499C9.02802 8.68399 9.983 7.60901 11.228 7.40601V7C11.228 6.586 11.564 6.25 11.978 6.25C12.392 6.25 12.728 6.586 12.728 7V7.396C13.892 7.565 14.822 8.49197 14.957 9.69397C15.003 10.106 14.707 10.4769 14.295 10.5229C13.879 10.5709 13.512 10.273 13.466 9.86096C13.402 9.29096 12.922 8.86096 12.35 8.86096H11.65C11.031 8.86096 10.528 9.36403 10.528 9.98303C10.528 10.234 10.611 10.478 10.761 10.668C10.919 10.872 11.131 11.01 11.379 11.072L12.987 11.4709C14.157 11.7669 14.973 12.813 14.973 14.015C14.972 14.715 14.699 15.373 14.203 15.869Z" fill="currentColor"/>
</svg>

<svg xmlns="http://www.w3.org/2000/svg" width="24" height="24" fill="none"><path fill="currentColor" d="M12 2C6.477 2 2 6.477 2 12s4.477 10 10 10 10-4.477 10-10S17.523 2 12 2Zm2.203 13.869c-.405.405-.92.652-1.475.732V17a.75.75 0 0 1-1.5 0v-.401a2.62 2.62 0 0 1-2.184-2.293.75.75 0 1 1 1.491-.167c.064.57.544 1 1.116 1h.7c.298 0 .579-.117.792-.33.213-.213.33-.494.33-.792 0-.515-.35-.962-.851-1.089l-1.608-.399a2.643 2.643 0 0 1-1.434-.935 2.61 2.61 0 0 1-.552-1.609c0-1.301.955-2.376 2.2-2.579V7a.75.75 0 0 1 1.5 0v.396a2.617 2.617 0 0 1 2.229 2.298.75.75 0 1 1-1.491.167c-.064-.57-.544-1-1.116-1h-.7a1.123 1.123 0 0 0-.271 2.211l1.608.399a2.624 2.624 0 0 1 1.986 2.544 2.61 2.61 0 0 1-.77 1.854Z"/></svg>
